svg/fluentui-system-icons/ic_fluent_textbox_more_24_filled.svg

<svg width="24" height="24" viewBox="0 0 24 24" fill="none" xmlns="http://www.w3.org/2000/svg">
<path d="M18.25 3C19.7688 3 21 4.23122 21 5.75V18.05C20.8384 18.0172 20.6712 18 20.5 18C19.3079 18 18.3107 18.8344 18.0605 19.951C18.0541 19.9794 18.0291 20 18 20C17.9709 20 17.9459 19.9794 17.9395 19.951C17.6893 18.8344 16.6921 18 15.5 18C14.3079 18 13.3107 18.8344 13.0605 19.951C13.0541 19.9794 13.0291 20 13 20C12.9709 20 12.9459 19.9794 12.9395 19.951C12.6893 18.8344 11.6921 18 10.5 18C9.11929 18 8 19.1193 8 20.5C8 20.6712 8.01722 20.8384 8.05001 21H5.75C4.23122 21 3 19.7688 3 18.25V5.75C3 4.23122 4.23122 3 5.75 3H18.25ZM15 12.25C15 11.8358 14.6642 11.5 14.25 11.5H6.75L6.64823 11.5068C6.28215 11.5565 6 11.8703 6 12.25C6 12.6642 6.33579 13 6.75 13H14.25L14.3518 12.9932C14.7178 12.9435 15 12.6297 15 12.25ZM17.25 15.5H6.75L6.64823 15.5068C6.28215 15.5565 6 15.8703 6 16.25C6 16.6642 6.33579 17 6.75 17H17.25L17.3518 16.9932C17.7178 16.9435 18 16.6297 18 16.25C18 15.8358 17.6642 15.5 17.25 15.5ZM18 8.25C18 7.83579 17.6642 7.5 17.25 7.5H6.75L6.64823 7.50685C6.28215 7.55651 6 7.8703 6 8.25C6 8.66421 6.33579 9 6.75 9H17.25L17.3518 8.99315C17.7178 8.94349 18 8.6297 18 8.25ZM12 20.5C12 21.3284 11.3284 22 10.5 22C9.67157 22 9 21.3284 9 20.5C9 19.6716 9.67157 19 10.5 19C11.3284 19 12 19.6716 12 20.5ZM15.5 22C16.3284 22 17 21.3284 17 20.5C17 19.6716 16.3284 19 15.5 19C14.6716 19 14 19.6716 14 20.5C14 21.3284 14.6716 22 15.5 22ZM20.5 22C21.3284 22 22 21.3284 22 20.5C22 19.6716 21.3284 19 20.5 19C19.6716 19 19 19.6716 19 20.5C19 21.3284 19.6716 22 20.5 22Z" fill="#212121"/>
</svg>

<svg xmlns="http://www.w3.org/2000/svg" width="24" height="24"><path d="M18.25 3A2.75 2.75 0 0 1 21 5.75v12.3a2.5 2.5 0 0 0-2.94 1.901A.062.062 0 0 1 18 20a.062.062 0 0 1-.06-.049 2.5 2.5 0 0 0-4.88 0A.062.062 0 0 1 13 20a.062.062 0 0 1-.06-.049A2.5 2.5 0 0 0 8.05 21h-2.3A2.75 2.75 0 0 1 3 18.25V5.75A2.75 2.75 0 0 1 5.75 3h12.5ZM15 12.25a.75.75 0 0 0-.75-.75h-7.5l-.102.007A.75.75 0 0 0 6.75 13h7.5l.102-.007A.75.75 0 0 0 15 12.25Zm2.25 3.25H6.75l-.102.007A.75.75 0 0 0 6.75 17h10.5l.102-.007a.75.75 0 0 0-.102-1.493ZM18 8.25a.75.75 0 0 0-.75-.75H6.75l-.102.007A.75.75 0 0 0 6.75 9h10.5l.102-.007A.75.75 0 0 0 18 8.25ZM12 20.5a1.5 1.5 0 1 1-3 0 1.5 1.5 0 0 1 3 0Zm3.5 1.5a1.5 1.5 0 1 0 0-3 1.5 1.5 0 0 0 0 3Zm5 0a1.5 1.5 0 1 0 0-3 1.5 1.5 0 0 0 0 3Z"/></svg>
